_src/static/img/icon/phone.svg

<svg width="31" height="31" viewBox="0 0 31 31" fill="none" xmlns="http://www.w3.org/2000/svg">
<path d="M29.7262 21.1823L22.2756 19.693C21.7128 19.5805 20.9277 19.8193 20.5214 20.2242L19.1748 21.5708C18.6381 22.1089 17.7034 22.1885 17.0898 21.741C15.8586 20.8378 14.1703 19.6203 12.7757 18.2257C11.3811 16.8297 10.1636 15.1414 9.26038 13.9102C8.8129 13.298 8.89389 12.3619 9.43058 11.8252L10.7771 10.4786C11.1834 10.0723 11.4209 9.28718 11.3083 8.7244L9.81903 1.2738C9.67765 0.569639 8.98173 0 8.26385 0H4.97779C3.48026 0 1.59839 2.30189 0.807756 3.36842C0.593627 3.65804 0.356163 4.18239 0.295768 4.53515C-0.0817039 6.76155 -1.45845 13.8429 7.84932 23.1521C17.1571 32.4598 24.2398 31.0817 26.4662 30.7056C26.819 30.6452 27.3433 30.4064 27.6316 30.1936C28.6967 29.403 31 27.5211 31 26.0236V22.7389C31 22.0196 30.429 21.3223 29.7262 21.1823Z" fill="#1B3ACD"/>
</svg>

<svg width="31" height="31" fill="none" xmlns="http://www.w3.org/2000/svg"><path d="M29.726 21.182l-7.45-1.489c-.563-.113-1.348.126-1.755.531l-1.346 1.347c-.537.538-1.472.617-2.085.17-1.231-.903-2.92-2.12-4.314-3.515-1.395-1.396-2.612-3.085-3.516-4.316-.447-.612-.366-1.548.17-2.085l1.347-1.346c.406-.407.644-1.192.531-1.755L9.82 1.274C9.678.57 8.982 0 8.264 0H4.978C3.48 0 1.598 2.302.808 3.368c-.214.29-.452.814-.512 1.167-.378 2.227-1.754 9.308 7.553 18.617 9.308 9.308 16.39 7.93 18.617 7.554.353-.06.877-.3 1.166-.512C28.697 29.403 31 27.52 31 26.024v-3.285c0-.72-.571-1.417-1.274-1.557z" fill="#1B3ACD"/></svg>
